icons/numix/32x32/mimetypes/application-vnd.oasis.opendocument.text-template.svg

<?xml version="1.0" encoding="UTF-8" standalone="no"?>
<svg
   xmlns:dc="http://purl.org/dc/elements/1.1/"
   xmlns:cc="http://creativecommons.org/ns#"
   xmlns:rdf="http://www.w3.org/1999/02/22-rdf-syntax-ns#"
   xmlns:svg="http://www.w3.org/2000/svg"
   xmlns="http://www.w3.org/2000/svg"
   xmlns:sodipodi="http://sodipodi.sourceforge.net/DTD/sodipodi-0.dtd"
   xmlns:inkscape="http://www.inkscape.org/namespaces/inkscape"
   width="32"
   height="32"
   viewBox="0 0 32 32"
   id="svg2"
   version="1.1"
   inkscape:version="0.48.5 r10040"
   sodipodi:docname="application-vnd.oasis.opendocument.text-template.svg">
  <metadata
     id="metadata36">
    <rdf:RDF>
      <cc:Work
         rdf:about="">
        <dc:format>image/svg+xml</dc:format>
        <dc:type
           rdf:resource="http://purl.org/dc/dcmitype/StillImage" />
      </cc:Work>
    </rdf:RDF>
  </metadata>
  <defs
     id="defs34" />
  <sodipodi:namedview
     pagecolor="#ffffff"
     bordercolor="#666666"
     borderopacity="1"
     objecttolerance="10"
     gridtolerance="10"
     guidetolerance="10"
     inkscape:pageopacity="0"
     inkscape:pageshadow="2"
     inkscape:window-width="1280"
     inkscape:window-height="970"
     id="namedview32"
     showgrid="true"
     inkscape:zoom="11.313709"
     inkscape:cx="15.917882"
     inkscape:cy="15.61799"
     inkscape:window-x="0"
     inkscape:window-y="0"
     inkscape:window-maximized="1"
     inkscape:current-layer="svg2">
    <inkscape:grid
       type="xygrid"
       id="grid3059" />
  </sodipodi:namedview>
  <path
     inkscape:connector-curvature="0"
     style="fill:#3468ce;fill-opacity:1"
     d="M 5.34375,-4e-7 C 4.6562764,1.46e-5 4,0.6890066 4,1.4062496 L 4,30.59375 C 4,31.270239 4.6953364,32 5.34375,32 l 21.3125,0 C 27.304664,32 28,31.270239 28,30.59375 L 28,8.999999 28,1.3749996 C 28,0.7020486 27.297951,-4e-7 26.625,-4e-7 l -7.625,0 -13.65625,0 z"
     id="path4-1" />
  <rect
     style="fill:#f9f9f9;fill-opacity:1;fill-rule:evenodd;stroke:none"
     id="rect3029"
     width="6"
     height="5"
     x="10"
     y="10" />
  <rect
     style="fill:#f9f9f9;fill-opacity:1;fill-rule:evenodd;stroke:none"
     id="rect3031"
     width="5"
     height="1"
     x="17"
     y="10" />
  <rect
     style="fill:#f9f9f9;fill-opacity:1;fill-rule:evenodd;stroke:none"
     id="rect3033"
     width="5"
     height="1"
     x="17"
     y="12" />
  <rect
     style="fill:#f9f9f9;fill-opacity:1;fill-rule:evenodd;stroke:none"
     id="rect3035"
     width="5"
     height="1"
     x="17"
     y="13.999999" />
  <rect
     style="fill:#f9f9f9;fill-opacity:1;fill-rule:evenodd;stroke:none"
     id="rect3037"
     width="12"
     height="1"
     x="10"
     y="15.999999" />
  <rect
     style="fill:#f9f9f9;fill-opacity:1;fill-rule:evenodd;stroke:none"
     id="rect3039"
     width="12"
     height="1"
     x="10"
     y="17.999998" />
  <rect
     style="fill:#f9f9f9;fill-opacity:1;fill-rule:evenodd;stroke:none"
     id="rect3041"
     width="12"
     height="1"
     x="10"
     y="19.999998" />
  <path
     style="fill:#000000;fill-opacity:0.19599998"
     d="m 4,24 0,6.667969 C 4,31.316407 4.6875,32 5.332031,32 l 21.335938,0 C 27.3125,32 28,31.316407 28,30.667969 L 28,24 z"
     id="path22"
     inkscape:connector-curvature="0" />
  <g
     style="fill:#ffffff"
     id="g24"
     transform="matrix(1.0544815,0,0,1.0544815,-0.89904786,-0.52322989)">
    <path
       d="m 10.484375,27.332031 c 0,0.25 0.0078,0.484375 0.02734,0.703125 0.02344,0.214844 0.06641,0.402344 0.128906,0.5625 0.06641,0.160156 0.160156,0.285156 0.277344,0.378906 0.117187,0.09375 0.273437,0.140626 0.46875,0.140626 0.191406,0 0.34375,-0.04688 0.460937,-0.140626 0.121094,-0.09375 0.214844,-0.21875 0.277344,-0.378906 0.06641,-0.167968 0.109375,-0.355468 0.128906,-0.570312 0.02344,-0.214844 0.03516,-0.445313 0.03516,-0.695313 0,-0.246093 -0.01172,-0.476562 -0.03516,-0.691406 -0.01953,-0.222656 -0.0625,-0.410156 -0.128906,-0.570313 -0.0625,-0.160156 -0.152344,-0.285156 -0.269531,-0.378906 -0.117188,-0.09375 -0.273438,-0.140625 -0.46875,-0.140625 -0.195313,0 -0.351563,0.04687 -0.46875,0.140625 -0.117188,0.09375 -0.210938,0.222656 -0.277344,0.386719 -0.0625,0.160156 -0.105469,0.347656 -0.128906,0.5625 -0.01953,0.214844 -0.02734,0.445313 -0.02734,0.691406 m -1.152344,0 c 0,-0.878906 0.183594,-1.542969 0.542969,-1.988281 0.363281,-0.453125 0.867188,-0.675781 1.511719,-0.675781 0.667969,0 1.179687,0.222656 1.527343,0.675781 0.351563,0.445312 0.527344,1.109375 0.527344,1.988281 0,0.882813 -0.179687,1.546875 -0.535156,2 C 12.550781,29.777344 12.046875,30 11.394531,30 c -0.667969,0 -1.179687,-0.222656 -1.535156,-0.667969 -0.351563,-0.453125 -0.527344,-1.117187 -0.527344,-2"
       id="path26"
       inkscape:connector-curvature="0" />
    <path
       d="m 18.0625,24.78125 0,0.84375 -1.5,0 0,4.269531 -1.144531,0 0,-4.269531 -1.5,0 0,-0.84375 4.144531,0"
       id="path28"
       inkscape:connector-curvature="0" />
    <path
       d="m 22.667969,24.78125 0,0.84375 -1.503907,0 0,4.269531 -1.140624,0 0,-4.269531 -1.5,0 0,-0.84375 4.144531,0"
       id="path30"
       inkscape:connector-curvature="0" />
  </g>
</svg>

<svg width="32" xmlns="http://www.w3.org/2000/svg" height="32" viewBox="0 0 32 32" xmlns:xlink="http://www.w3.org/1999/xlink">
<path style="fill:#3468ce" d="M 5.332031 0.667969 C 4.648438 0.667969 4 1.3125 4 2 L 4 30 C 4 30.648438 4.6875 31.332031 5.332031 31.332031 L 26.667969 31.332031 C 27.3125 31.332031 28 30.648438 28 30 L 28 2 C 28 1.3125 27.351562 0.667969 26.667969 0.667969 Z "/>
<path style="fill:#fff" d="M 10.71875 10.667969 L 15.28125 10.667969 C 15.492188 10.667969 15.667969 10.847656 15.667969 11.066406 L 15.667969 14.933594 C 15.667969 15.152344 15.492188 15.332031 15.28125 15.332031 L 10.71875 15.332031 C 10.507812 15.332031 10.332031 15.152344 10.332031 14.933594 L 10.332031 11.066406 C 10.332031 10.847656 10.507812 10.667969 10.71875 10.667969 Z "/>
<g style="stroke-linecap:round;fill:none;stroke:#fff;stroke-linejoin:round">
<path d="M 26.498047 17.5 L 31.501953 17.5 " transform="matrix(.66667 0 0 .66667 -.33333 -.66667)"/>
<path d="M 26.498047 20.5 L 31.501953 20.5 " transform="matrix(.66667 0 0 .66667 -.33333 -.66667)"/>
<path d="M 26.498047 23.5 L 31.501953 23.5 " transform="matrix(.66667 0 0 .66667 -.33333 -.66667)"/>
<path d="M 15.998047 26.5 L 32 26.5 " transform="matrix(.66667 0 0 .66667 -.33333 -.66667)"/>
<path d="M 15.998047 29.5 L 32 29.5 " transform="matrix(.66667 0 0 .66667 -.33333 -.66667)"/>
<path d="M 15.998047 32.5 L 32 32.5 " transform="matrix(.66667 0 0 .66667 -.33333 -.66667)"/>
</g>
<path style="fill:#000;fill-opacity:.196" d="M 4 23.332031 L 4 30 C 4 30.648438 4.6875 31.332031 5.332031 31.332031 L 26.667969 31.332031 C 27.3125 31.332031 28 30.648438 28 30 L 28 23.332031 Z "/>
<g style="fill:#fff">
<path d="M 10.484375 27.332031 C 10.484375 27.582031 10.492188 27.816406 10.511719 28.035156 C 10.535156 28.25 10.578125 28.4375 10.640625 28.597656 C 10.707031 28.757812 10.800781 28.882812 10.917969 28.976562 C 11.035156 29.070312 11.191406 29.117188 11.386719 29.117188 C 11.578125 29.117188 11.730469 29.070312 11.847656 28.976562 C 11.96875 28.882812 12.0625 28.757812 12.125 28.597656 C 12.191406 28.429688 12.234375 28.242188 12.253906 28.027344 C 12.277344 27.8125 12.289062 27.582031 12.289062 27.332031 C 12.289062 27.085938 12.277344 26.855469 12.253906 26.640625 C 12.234375 26.417969 12.191406 26.230469 12.125 26.070312 C 12.0625 25.910156 11.972656 25.785156 11.855469 25.691406 C 11.738281 25.597656 11.582031 25.550781 11.386719 25.550781 C 11.191406 25.550781 11.035156 25.597656 10.917969 25.691406 C 10.800781 25.785156 10.707031 25.914062 10.640625 26.078125 C 10.578125 26.238281 10.535156 26.425781 10.511719 26.640625 C 10.492188 26.855469 10.484375 27.085938 10.484375 27.332031 M 9.332031 27.332031 C 9.332031 26.453125 9.515625 25.789062 9.875 25.34375 C 10.238281 24.890625 10.742188 24.667969 11.386719 24.667969 C 12.054688 24.667969 12.566406 24.890625 12.914062 25.34375 C 13.265625 25.789062 13.441406 26.453125 13.441406 27.332031 C 13.441406 28.214844 13.261719 28.878906 12.90625 29.332031 C 12.550781 29.777344 12.046875 30 11.394531 30 C 10.726562 30 10.214844 29.777344 9.859375 29.332031 C 9.507812 28.878906 9.332031 28.214844 9.332031 27.332031 "/>
<path d="M 18.0625 24.78125 L 18.0625 25.625 L 16.5625 25.625 L 16.5625 29.894531 L 15.417969 29.894531 L 15.417969 25.625 L 13.917969 25.625 L 13.917969 24.78125 L 18.0625 24.78125 "/>
<path d="M 22.667969 24.78125 L 22.667969 25.625 L 21.164062 25.625 L 21.164062 29.894531 L 20.023438 29.894531 L 20.023438 25.625 L 18.523438 25.625 L 18.523438 24.78125 L 22.667969 24.78125 "/>
</g>
</svg>
